X:275
T: Der Habersack (37), S.126
N: T0164
O: Luxemburg
S: Singendes Volk, Esch-Alzette 1937 posth.]
N: Esch_Alz., hhh Dominik Mller, 1915
R: Liebeslieder]
M: 2/4
L: 1/16
K: G
D2 | G2G2GGA2 | GFE2D4 | G4A4 | B4z2
B2 | B2BBBBd2 | d2B2c4
A2A2A2AA | B2Bcd2
B2 | B2BBBBd2 | d2B2c4
A2A2d2d2 | B4z2

